X: 18
T: No_120_Song_of_the_Deserted_Warrior.krn
N: Derived from No_120_Song_of_the_Deserted_Warrior.krn
%%abc-version 2.0
%%abcx-abcm2ps-target-version 5.9.1 (29 Sep 2008)
%%abc-creator hum2abc beta
%%abcx-conversion-date 2019/03/15 08:29:13
%%humdrum-veritas 3701097974
%%humdrum-veritas-data 1494085427
%%linebreak <none>
%%barnumbers 0
L: 1/8
M: 3/4
%%staves {1 2}
V: 1 clef=bass
V: 2 clef=bass
K: C
[V:1] A,2 [I:setbarnb 1]| 
[V:2] z G,, | 
[V:1] A,4A,2 | 
[V:2] (3!accent!G,, z G,, (3!accent!G,, z G,, (3!accent!G,, z G,, | 
[V:1] C2C2C2 | 
[V:2] z6 | 
[V:1] A,2A,3F, | 
[V:2] z6 | 
[V:1] A,3A,3/ G,3/ | 
[V:2] z6 | 
[V:1] E,4C,2 | 
[V:2] z6 | 
[V:1] E,3C,3/ C,3/ | 
[V:2] z6 | 
[V:1] C,4C,2 | 
[V:2] z6 | 
[V:1] C,2C,4 |]  
[V:2] z6 |]  



